svg/24/compass.svg

<svg width="24" height="24" viewBox="0 0 24 24" fill="currentColor" xmlns="http://www.w3.org/2000/svg"><path fill-rule="evenodd" clip-rule="evenodd" d="M6.91403 15.7808C6.57559 16.6027 7.39753 17.4246 8.21946 17.0862L14.115 14.6586C14.3615 14.5571 14.5573 14.3613 14.6589 14.1147L17.0864 8.21922C17.4249 7.39728 16.6029 6.57535 15.781 6.91379L9.88552 9.34134C9.63894 9.44288 9.44312 9.63869 9.34159 9.88527L6.91403 15.7808ZM15.2425 8.75771L10.6493 10.649L13.3512 13.3509L15.2425 8.75771Z"/><path fill-rule="evenodd" clip-rule="evenodd" d="M22 12C22 17.5228 17.5228 22 12 22C6.47715 22 2 17.5228 2 12C2 6.47715 6.47715 2 12 2C17.5228 2 22 6.47715 22 12ZM20.5 12C20.5 16.6944 16.6944 20.5 12 20.5C7.30558 20.5 3.5 16.6944 3.5 12C3.5 7.30558 7.30558 3.5 12 3.5C16.6944 3.5 20.5 7.30558 20.5 12Z"/></svg>

<svg xmlns="http://www.w3.org/2000/svg" width="24" height="24" fill="currentColor" viewBox="0 0 24 24">
  <path fill-rule="evenodd" d="M6.914 15.78c-.338.823.484 1.645 1.305 1.306l5.896-2.427a1 1 0 0 0 .544-.544l2.427-5.896c.339-.822-.483-1.644-1.305-1.305L9.886 9.34a1 1 0 0 0-.544.544L6.914 15.78Zm8.329-7.022-4.594 1.891 2.702 2.702 1.891-4.593Z" clip-rule="evenodd"/>
  <path fill-rule="evenodd" d="M22 12c0 5.523-4.477 10-10 10S2 17.523 2 12 6.477 2 12 2s10 4.477 10 10Zm-1.5 0a8.5 8.5 0 1 1-17 0 8.5 8.5 0 0 1 17 0Z" clip-rule="evenodd"/>
</svg>
